brandFactory_export/3.Masa/Farmacia _3Masa.svg

<?xml version="1.0" encoding="UTF-8"?>
<svg width="24px" height="24px" viewBox="0 0 24 24" version="1.1" xmlns="http://www.w3.org/2000/svg" xmlns:xlink="http://www.w3.org/1999/xlink">
    <title>3.Masa/Farmacia _3Masa</title>
    <g id="Symbols" stroke="none" stroke-width="1" fill="none" fill-rule="evenodd">
        <g id="3.Masa/Farmacia-_3Masa" fill="#5CB615" fill-rule="nonzero">
            <path d="M18.4705882,17.9092437 C17.9798319,18.2991597 17.405042,18.5411765 16.8268908,18.6823529 C17.9798319,17.9630252 18.605042,17.0689076 18.605042,15.7478992 C18.605042,14.4739496 17.6403361,13.6201681 16.7563025,13.1226891 C16.9210084,12.9714286 17.0789916,12.810084 17.2268908,12.6420168 C17.3647059,12.702521 17.4823529,12.7764706 17.6,12.8638655 C17.7008403,12.9378151 17.794958,13.005042 17.892437,13.0621849 C18.7764706,13.5764706 19.3714286,14.5512605 19.4487395,15.6033613 C19.4789916,16.1478992 19.405042,17.1663866 18.4705882,17.9092437 M13.3983193,18.7226891 L13.3983193,14.5983193 C14.1277311,14.5210084 14.8369748,14.312605 15.492437,13.9831933 C16.1210084,14.2117647 17.287395,14.8605042 17.287395,15.7512605 C17.2840336,16.8773109 16.6789916,17.6504202 13.3983193,18.7226891 M5.5092437,5.61680672 C5.73109244,4.34621849 6.56806723,3.17310924 7.81176471,2.39663866 C10.9915966,0.413445378 13.9361345,2.1210084 14.0907563,2.21176471 C14.097479,2.21512605 14.9747899,2.70252101 15.1226891,3.52941176 C15.2134454,4.0302521 15.0151261,4.59831933 14.5310924,5.21680672 C14.3394958,5.05210084 14.1277311,4.55462185 14.0773109,3.60672269 C14.0672269,3.40168067 13.9663866,3.21008403 13.8016807,3.08571429 C13.7142857,3.02184874 11.6840336,1.50252101 8.66218487,2.96806723 C7.60336134,3.4789916 6.8605042,4.10084034 6.42689076,5.62689076 C6.21176471,6.41008403 6.2487395,7.24033613 6.52773109,8 L6.52773109,8.94117647 C6.52773109,9.1092437 6.54117647,9.27058824 6.55462185,9.43193277 C5.52605042,8.27226891 5.31428571,6.75294118 5.5092437,5.61680672 M20.7563025,15.5159664 C20.6487395,14.0369748 19.805042,12.6655462 18.5546218,11.9327731 C18.4941176,11.8991597 18.4403361,11.8554622 18.3798319,11.8117647 C18.2487395,11.7109244 18.107563,11.6201681 17.9630252,11.5361345 C18.3159664,10.8235294 18.5310924,9.99327731 18.5445378,9.05210084 L18.5478992,7.99663866 C18.5478992,7.60672269 18.2319328,7.29411765 17.8453782,7.29411765 L7.79159664,7.29411765 C7.67731092,6.87394958 7.67394958,6.4302521 7.78823529,6.01008403 C8.11092437,4.87058824 8.60840336,4.55798319 9.27731092,4.23193277 C10.9781513,3.41176471 12.2016807,3.81512605 12.6991597,4.05714286 C12.8134454,5.19327731 13.1663866,5.97310924 13.7445378,6.38319328 C14.2084034,6.7092437 14.7260504,6.72268908 15.0285714,6.63193277 C15.1563025,6.59495798 15.2672269,6.52436975 15.3546218,6.42689076 C16.3058824,5.36134454 16.6957983,4.30588235 16.5109244,3.28067227 C16.2420168,1.77815126 14.8134454,1.00168067 14.789916,0.988235294 C14.6352941,0.894117647 10.994958,-1.24705882 7.06554622,1.2 C5.48235294,2.18487395 4.41008403,3.70756303 4.1210084,5.37478992 C3.78487395,7.29747899 4.34285714,10.0773109 7.00504202,11.5831933 C7.05882353,11.6134454 7.11596639,11.610084 7.1697479,11.6268908 C8.04033613,13.3008403 9.75462185,14.389916 11.9865546,14.594958 L11.9865546,20.2084034 C10.6857143,20.4773109 9.94621849,21.4352941 9.94621849,22.9512605 C9.94621849,23.3411765 10.2621849,23.6537815 10.6521008,23.6537815 L14.8907563,23.6537815 C15.2806723,23.6537815 15.5966387,23.3378151 15.5966387,22.9512605 C15.5966387,21.3747899 14.8067227,20.389916 13.3983193,20.1714286 L13.3983193,20.0302521 C13.5495798,20.0605042 14.2352941,20.1915966 15.1529412,20.1915966 C16.3764706,20.1915966 18.0067227,19.9596639 19.287395,18.9411765 C20.3193277,18.1210084 20.8537815,16.8739496 20.7563025,15.5159664" id="Farmacia-_3Masa"></path>
        </g>
    </g>
</svg>

<svg width="24" height="24" viewBox="0 0 24 24" xmlns="http://www.w3.org/2000/svg"><path d="M18.47 17.91c-.49.39-1.065.631-1.643.772 1.153-.719 1.778-1.613 1.778-2.934 0-1.274-.965-2.128-1.849-2.625a6.35 6.35 0 00.47-.481c.139.06.256.134.374.222.1.074.195.141.292.198.884.514 1.48 1.49 1.557 2.541.03.545-.044 1.563-.978 2.306m-5.073.814v-4.125a6.093 6.093 0 002.094-.615c.629.229 1.795.878 1.795 1.768-.003 1.126-.608 1.9-3.889 2.972M5.51 5.617c.222-1.27 1.06-2.444 2.303-3.22 3.18-1.984 6.124-.276 6.279-.185.006.003.884.49 1.032 1.317.09.501-.108 1.07-.592 1.688-.192-.165-.403-.662-.454-1.61a.697.697 0 00-.275-.521c-.088-.064-2.118-1.583-5.14-.118-1.059.511-1.801 1.133-2.235 2.659A3.894 3.894 0 006.527 8v.941c0 .168.014.33.028.49-1.029-1.159-1.24-2.678-1.046-3.814m15.247 9.899c-.107-1.479-.951-2.85-2.201-3.583-.06-.034-.115-.078-.175-.121a3.887 3.887 0 00-.417-.276 5.731 5.731 0 00.582-2.484l.003-1.055a.702.702 0 00-.703-.703H7.792a2.447 2.447 0 01-.004-1.284c.323-1.14.82-1.452 1.49-1.778 1.7-.82 2.924-.417 3.421-.175.114 1.136.467 1.916 1.046 2.326.463.326.981.34 1.284.249a.694.694 0 00.326-.205c.95-1.066 1.34-2.121 1.156-3.146C16.242 1.778 14.813 1 14.79.988c-.155-.094-3.795-2.235-7.724.212-1.584.985-2.656 2.508-2.945 4.175-.336 1.922.222 4.702 2.884 6.208.054.03.111.027.165.044.87 1.674 2.585 2.763 4.817 2.968v5.613c-1.301.27-2.04 1.227-2.04 2.743 0 .39.315.703.705.703h4.239c.39 0 .706-.316.706-.703 0-1.576-.79-2.561-2.199-2.78v-.14c.152.03.837.16 1.755.16 1.223 0 2.854-.231 4.134-1.25 1.032-.82 1.567-2.067 1.47-3.425" fill="#5CB615" fill-rule="nonzero"/></svg>
